X: 225
T:Scottiche
M:2/2
L:1/16
Q:50
C:trad
O:France
K:F
AA A>G|F/2G/2A/2B/2 G2|EG F/2A/2F/2D/2|E/2G/2F/2E/2 FD|
AAA>G|F/2G/2A/2B/2 G2|EG F/2A/2F/2D/2|E/2G/2F/2E/2 D2:|
|:A G/2A/2 d d/2e/2|d/2c/2=B/2A/2 G2|AA D/2E/2F/2A/2|G F/2E/2 FD|
A G/2A/2 d d/2e/2|d/2c/2=B/2A/2 G2|AA D/2E/2F/2A/2|G/2F/2E/2F/2 D2:||
W:
W: From "Falaleiro" http://home.t-online.de/home/pheld/homepage.htm

